X:1
T:Quant'è Madonna mia
T:Jacques Arcadelt (1505-1568)
T:Quant'è Madonna mia
C:Jacques Arcadelt (1505-1568)
%%score [ 1 2 3 4 ]
L:1/8
M:4/4
K:C
V:1 treble nm="SOPRANO" snm="S."
V:2 treble nm="ALTO" snm="A."
V:3 treble-8 transpose=-12 nm="TENOR" snm="T."
V:4 bass nm="BASS" snm="B."
V:1
"^All accidentals in parentheses are added by the editor according to common musica ficta practice,                         and may be freely disregarded.  Brackets indicate original ligature." A8 | %1
w: Quan-|
 A6 A2 | F2 G2 A4 | A4 G2 F2 | E4 D4 | z2 A2 A2 A2 | A2 A2 _B4 | G6 G2 | F2 E4 D2 | E8 | %10
w: tè Ma-|don- na mia|fol- le'l pen-|sie- ro|Se pur de|la mia mor-|te in-|gor- da se-|te|
 z2 E2 F2 E2 | F2 F2 D4 | C4 z2 E2 | F2 G2 A2 A2 | A3 A G2 F2 | E4 D4 | D4 D2 D2 | C2 C2 C4 | %18
w: Se già voi|non por- ge-|te Ai-|u- to tal co'l|di- vin volt' al-|tie- ro|Ch'in me vi-|ta ne por-|
 C4 F3 G | A2 G3 F F2- | F2 E2 F4 | F4 F2 F2 | G2 G2 A4 | A4 F2 G2 | E4 D4 | z2 A2 A2 A2 | _B4 G4 | %27
w: ge di _|_ quel _ man-|* * co|Per- che mo-|rir non può|chi non ha-|vi- ta|E quel- che|vi- ve|
 G6 G2 | F2 E4 D2 | E8 | z2 C2 D2 E2 | F2 F2 D2 D2 | C4 C2 C2 | F3 G A2 G2- | GF F4 E2 | F4 F4 | %36
w: de- ne|mo- rir an-|co|Dun- que se|mi da- re- te|vi- ta mia|mort- * * te|_ _ hav- re-|te Et|
 F2 F2 G2 G2 | A4 A4 | F2 G2 E4 | D8- | D8- | D8- | D8 |] %43
w: io per mort' an-|cor ha-|vrò la vi-|ta.|_|||
V:2
 A,4 D4- | D2 C2 F2 E2 | D4 C4 | F4 E2 D2- | D2 !courtesy!^C2 D4 | F4 F2 F2 | F2 F2 G4 | E6 E2 | %8
w: Quan- t'è|_ Ma- don- na|mi- a|fol- le'l pen-|* sie- ro|Se pur de|la mia mor-|te in-|
 D2 G,2 A,4 | B,4 C4 | z2 C2 D2 C2 | D2 D2 B,4 | A,4 z2 C2 | D2 E2 F2 F2 | F3 F E2 D2- | %15
w: gor- da se-|* te|Se già voi|non por- ge-|te Ai-|u- to tal co'l|di- vin volt' al-|
 D2 !courtesy!^C2 D4 | z2 _B,2 B,2 B,2 | G,2 A,2 G,4 | A,3 B, C4 | z2 E2 D2 !courtesy!_B,2 | %20
w: * tie- ro|Ch'in me vi-|ta ne por-|ge _ _|di qual _|
 C4 A,4 | z2 D2 D2 C2 | D2 E4 F2- | F2 E2 ED D2- | D2 !courtesy!^C2 D4 | F4 F2 F2 | G4 E4 | E6 E2 | %28
w: man- co|Per- che mo-|rir non può|_ chi non _ ha-|* vi- ta|E quel- che|vi- ve|de- ne|
 D2 G,2 A,4 | B,4 C4 | z2 A,2 !courtesy!_B,2 C2 | A,2 F,2 _B,3 A, | G,4 A,3 B, | C4 z2 E2 | %34
w: mo- rir an-|* co|Dun- que se|mi da- re- te|vi- * *|ta mia|
 D2 !courtesy!_B,2 C4 | A,4 z2 D2 | D2 C2 D2 E2- | E2 F4 E2 | ED D4 !courtesy!^C2 | %39
w: mort' hav- re-|te Et|io per mort' an-|* cor ha-|vrò la vi- *|
 D2 A,2 _B,2 G,2 | G,2 F,2 G,2 G,2 | A,2 A,2 !courtesy!_B,4 | A,8 |] %43
w: ta, et io per|mort' an- cor ha-|vrò la vi-|ta.|
V:3
 e4 f4- | f2 e2 d2 c2 | _B4 A4 | FGA!courtesy!=B c2 d2 | A4 D4 | d4 d2 d2 | d2 d2 d4 | c6 c2 | %8
w: Quan- t'è|_ Ma- don- na|mi- a|fol- * * * le'l pen-|sie- ro|Se pur de|la mia mor-|te in-|
 A2 c3 B A2- | A2 !courtesy!^G2 A4 | z2 A2 A2 A2 | F2 F2 G4 | E4 z2 A2 | A2 c2 c2 c2 | %14
w: gor- da se- *|* * te|Se già voi|non por- ge-|te Ai-|u- to tal co'l|
 c2 c2 c2 A2 | A4 F4 | F4 F2 F2 | E2 F4 E2 | F2 F3 GAB | c3 !courtesy!_B A2 GF | G4 F4 | %21
w: di- vin volt' al-|tie- ro|Ch'in me vi-|ta ne por-|ge di _ _ _|_ qual man- * *|* co|
 z2 _B2 B2 A2 | !courtesy!_B2 c4 d2- | d2 A2 !courtesy!_B2 G2 | A4 D4 | d4 d2 d2 | d4 c4 | c6 c2 | %28
w: Per- che mo-|rir non può|_ chi non ha-|vi- ta|E quel- che|vi- ve|de- ne|
 A2 c3 B A2- | A2 !courtesy!^G2 A4 | z2 E2 F2 G2 | F2 A2 G2 F2- | F2 E2 F2 F2- | FGA_B c3 B | %34
w: mo- rir _ _|_ an- co|Dun- que se|mi da- re- te|_ Vi- ta mia|_ _ _ _ mort' hav-|
 A2 GF G4 | F4 z2 _B2 | _B2 A2 B2 c2- | c2 d4 A2 | !courtesy!_B2 G2 A4 | F2 F2 G2 G2 | %40
w: re- * * *|te Et|io per mort' an-|* cor ha-|vrò la vi-|ta, et io per|
 A2 A2 !courtesy!_B2 G2 | G2 F2 G4 | ^F8 |] %43
w: mort' an- cor ha-|vrò la vi-|ta.|
V:4
 z8 | z8 | z8 | z8 | z8 | D,4 D,2 D,2 | D,2 D,2 G,4 | C,6 C,2 | D,2 C,2 F,4 | E,4 A,,4 | %10
w: |||||Se pur de|la mia mor-|te in-|gor- da se-|* te|
 z2 A,,2 D,2 A,,2 | D,2 D,2 G,,4 | A,,4 z2 A,,2 | D,2 C,2 F,2 F,2 | F,3 F, C,2 D,2 | A,,4 D,4 | %16
w: Se gia voi|non por- ge-|te Ai-|u- to tal co'l|di- vin volt' al-|tie- ro|
 _B,,4 B,,2 B,,2 | C,2 F,,2 C,4 | F,,4 z2 F,2- | F,2 C,2 D,4 | C,4 F,,4 | z8 | z8 | z8 | z8 | %25
w: Ch'in me vi-|ta ne por-|ge di|_ qual man-|* co|||||
 D,4 D,2 D,2 | G,4 C,4 | C,6 C,2 | D,2 C,2 F,4 | E,4 A,,4 | z2 A,,2 D,2 C,2 | D,2 D,2 _B,,2 B,,2 | %32
w: E quel- che|vi- ve|de- ne|mo- rir an-|* co|Dun- que se|mi da- re- te|
 C,4 F,,4 | z2 F,2 F,2 C,2 | D,4 C,4 | F,,4 z4 | z8 | z8 | z4 z2 A,,2 | D,2 D,2 G,,2 G,,2 | %40
w: Vi- ta|mia mort hav-|re- *|te|||Et|io per mort' an-|
 D,2 D,2 G,,2 G,,2 | D,4 G,,4 | D,8 |] %43
w: cor ha- vrò la|vi- *|ta.|

